X:1
T:As the Day Breaks
T:As the Day Breaks
T:Charles Austin Miles
T:Charles Austin Miles,1905
T:Public Domain Courtesy of the Cyber Hymnal™
T:Public Domain Courtesy of the Cyber Hymnal™
C:Charles Austin Miles
Z:Public Domain
Z:Courtesy of the Cyber Hymnal™
%%score ( 1 2 ) ( 3 4 )
L:1/8
Q:1/4=98
M:4/4
K:Bb
V:1 treble 
V:2 treble 
V:3 bass 
V:4 bass 
V:1
 [B,D][CE] | [DF][Fd][Ec][DB] [DF]2 [B,D][CE] | [DF]2 [DF]4 [B,D][CE] | %3
w: 1.~As the|sha- dows of the night round are|fall- ing, I am|
w: 2.~When we|ga- ther home at last there’ll be|sing- ing, Such as|
w: 3.~I shall|rise to be with Je- sus for-|ev- er, I shall|
 [DF][Fd][Ec][DB] [DF]2 [DG][DB] | [EA]6 [EA][EB] | [Ec][E=B][Ec][EA] [EG]2 [EA][EG] | %6
w: think- ing of that day by and|by, When the|trum- pet of the Lord shall be|
w: an- gels round the throne nev- er|heard; For the|song of souls re- deemed shall go|
w: meet the ones who passed on be-|fore; We shall|meet to part no more, nev- er,|
 [DF]2 [DF]4 [EA][DB] | [Ec]3 [DB] [Fd]2 [Ec]2 | [DB]6 ||"^Refrain" [DB][DA] | %10
w: call- ing, As the|day breaks o’er the|hills.||
w: ring- ing, As the|day breaks o’er the|hills.|I’ll go|
w: nev- er, When the|day breaks o’er the|hills.||
 [EA]<[EG] [EG][EG] [EG]<[EG] [EA][EG] | [EG]2 [DF]2 [DF]2 [EA]>[DB] | [Ec]4 [Ec]2 [DB]>[Ec] | %13
w: |||
w: sing- ing, I’ll go shout- ing on my|jour- ney home, Till the|day breaks, till the|
w: |||
 [Fd]4 [Fd]2 [DB][DA] | [EA]<[EG] [EG][EG] [EG]<[EG] [EA][EG] | [EG]2 [DF]2 [DF]2 [EA]>[DB] | %16
w: |||
w: day breaks; There’ll be|sing- ing, there’ll be shout- ing, When we|all get home, When the|
w: |||
 [Ec]3 [DB] [Fd]2 [Ec]2 | B6 D2 |] %18
w: ||
w: day breaks o’er the|hills. *|
w: ||
V:2
 x2 | x8 | x8 | x8 | x8 | x8 | x8 | x8 | x6 || x2 | x8 | x8 | x8 | x8 | x8 | x8 | x8 | DDEC x4 |] %18
V:3
 [B,,F,][B,,F,] | [B,,B,][B,,B,][B,,B,][B,,B,] [B,,B,]2 [B,,F,][B,,F,] | %2
w: ~ ~|~ ~ ~ ~ ~ ~ ~|
 [B,,B,]2 [B,,B,]4 [B,,F,][B,,F,] | [B,,B,][B,,B,][B,,B,][B,,B,] [B,,B,]2 [B,,B,][B,,B,] | %4
w: ~ ~ ~ ~|~ ~ ~ ~ ~ ~ ~|
 [F,C]6 [F,C][F,B,] | [F,A,][F,^G,][F,A,][F,C] [F,C]2 [F,C][F,A,] | [B,,B,]2 [B,,B,]4 [F,C][F,B,] | %7
w: ~ ~ ~|~ ~ ~ ~ ~ ~ ~|~ ~ ~ ~|
 [F,A,]3 [F,B,] [F,B,]2 [F,A,]2 | [B,,F,]6 || [B,,F,][B,,B,] | %10
w: ~ ~ ~ ~|~|~ ~|
 [E,B,]<[E,B,] [E,B,][E,B,] [E,B,]<[E,B,] [E,B,][E,B,] | [B,,B,]2 [B,,B,]2 [B,,B,]2 [F,C]>[F,B,] | %12
w: ~ ~ ~ ~ ~ ~ ~ ~|~ ~ ~ ~ ~|
 [F,A,]4 [F,A,]2 [F,B,]>[F,A,] | [B,,B,]4 [B,,B,]2 [B,,F,][B,,B,] | %14
w: ~ ~ ~ ~|~ ~ ~ ~|
 [E,B,]<[E,B,] [E,B,][E,B,] [E,B,]<[E,B,] [E,B,][E,B,] | [B,,B,]2 [B,,B,]2 [B,,B,]2 [F,C]>[F,B,] | %16
w: ~ ~ ~ ~ ~ ~ ~ ~|~ ~ ~ ~ ~|
 [F,B,]3 [F,B,] [F,B,]2 [F,A,]2 | F,F,G,=E, F,2 x2 |] %18
w: ~ ~ ~ ~|~ the heav’n- ly hills.|
V:4
 x2 | x8 | x8 | x8 | x8 | x8 | x8 | x8 | x6 || x2 | x8 | x8 | x8 | x8 | x8 | x8 | x8 | B,,6 x2 |] %18

